X: 13
T:Black Joke, Adderbury
M:6/8
L:1/8
A:Adderbury
P:A(AB)6
K:G
P:A
|:D|DGG GFG |AcB A2G/F/|GAB d>cB|AcB AGF|\
G>AB E>FG|DEF G2:|
P:B
z|Bdd  d>dd|ede d3 |Bdd d>dd|ede d2c |
B>BB BAG |AcB AGF|GAB d>cB|AcB A>GF |
G>AB E>FG|DEF G2||
